packages/ffe-icons/icons/filled/sm/medical_services.svg

<svg xmlns="http://www.w3.org/2000/svg" height="20" viewBox="0 -960 960 960" width="20"><path d="M180.309-116.001q-27.008 0-45.658-18.65-18.65-18.65-18.65-45.658v-455.382q0-27.008 18.65-45.658 18.65-18.65 45.658-18.65h175.692v-59.903q0-27.095 18.676-45.595t45.72-18.5h119.558q27.044 0 45.544 18.65 18.5 18.65 18.5 45.657v59.691h175.692q27.008 0 45.658 18.65 18.65 18.65 18.65 45.658v455.382q0 27.008-18.65 45.658-18.65 18.65-45.658 18.65H180.309ZM408-699.999h144v-59.691q0-4.616-3.846-8.462-3.847-3.847-8.463-3.847H420.309q-4.616 0-8.463 3.847Q408-764.306 408-759.69v59.691Zm46.001 317.998V-288q0 11.05 7.418 18.524 7.418 7.475 18.384 7.475 10.966 0 18.581-7.475 7.615-7.474 7.615-18.524v-94.001H600q11.05 0 18.524-7.418 7.475-7.418 7.475-18.384 0-10.966-7.475-18.581-7.474-7.615-18.524-7.615h-94.001V-528q0-11.05-7.418-18.524-7.418-7.475-18.384-7.475-10.966 0-18.581 7.475-7.615 7.474-7.615 18.524v94.001H360q-11.05 0-18.524 7.418-7.475 7.418-7.475 18.384 0 10.966 7.475 18.581 7.474 7.615 18.524 7.615h94.001Z"/></svg>

<svg xmlns="http://www.w3.org/2000/svg" height="20" viewBox="0 -960 960 960" width="20"><path d="M180.31-116q-27.01 0-45.66-18.65Q116-153.3 116-180.31v-455.38q0-27.01 18.65-45.66Q153.3-700 180.31-700H356v-59.9q0-27.1 18.68-45.6Q393.35-824 420.4-824h119.56q27.04 0 45.54 18.65t18.5 45.66V-700h175.69q27.01 0 45.66 18.65Q844-662.7 844-635.69v455.38q0 27.01-18.65 45.66Q806.7-116 779.69-116H180.31ZM408-700h144v-59.69q0-4.62-3.85-8.46-3.84-3.85-8.46-3.85H420.31q-4.62 0-8.46 3.85-3.85 3.84-3.85 8.46V-700Zm46 318v94q0 11.05 7.42 18.52 7.42 7.48 18.38 7.48 10.97 0 18.58-7.48Q506-276.95 506-288v-94h94q11.05 0 18.52-7.42 7.48-7.42 7.48-18.38 0-10.97-7.48-18.58Q611.05-434 600-434h-94v-94q0-11.05-7.42-18.52-7.42-7.48-18.38-7.48-10.97 0-18.58 7.48Q454-539.05 454-528v94h-94q-11.05 0-18.52 7.42-7.48 7.42-7.48 18.38 0 10.97 7.48 18.58Q348.95-382 360-382h94Z"/></svg>
